img/elem/ElemCylinderLensT.svg

<?xml version="1.0" encoding="UTF-8" standalone="no"?>
<!-- Created with Inkscape (http://www.inkscape.org/) -->
<svg
   xmlns:svg="http://www.w3.org/2000/svg"
   xmlns="http://www.w3.org/2000/svg"
   version="1.0"
   width="205"
   height="272"
   id="svg2">
  <defs
     id="defs4">
    <marker
       refX="0"
       refY="0"
       orient="auto"
       id="TriangleInM"
       style="overflow:visible">
      <path
         d="M 5.77,0 L -2.88,5 L -2.88,-5 L 5.77,0 z"
         transform="scale(-0.4,-0.4)"
         id="path3240"
         style="fill-rule:evenodd;stroke:#000000;stroke-width:1pt;marker-start:none" />
    </marker>
    <marker
       refX="0"
       refY="0"
       orient="auto"
       id="Arrow2Lstart"
       style="overflow:visible">
      <path
         d="M 8.7185878,4.0337352 L -2.2072895,0.016013256 L 8.7185884,-4.0017078 C 6.97309,-1.6296469 6.9831476,1.6157441 8.7185878,4.0337352 z"
         transform="matrix(1.1,0,0,1.1,1.1,0)"
         id="path10062"
         style="font-size:12px;fill-rule:evenodd;stroke-width:0.625;stroke-linejoin:round" />
    </marker>
    <marker
       refX="0"
       refY="0"
       orient="auto"
       id="Arrow2Lend"
       style="overflow:visible">
      <path
         d="M 8.7185878,4.0337352 L -2.2072895,0.016013256 L 8.7185884,-4.0017078 C 6.97309,-1.6296469 6.9831476,1.6157441 8.7185878,4.0337352 z"
         transform="matrix(-1.1,0,0,-1.1,-1.1,0)"
         id="path10065"
         style="font-size:12px;fill-rule:evenodd;stroke-width:0.625;stroke-linejoin:round" />
    </marker>
    <marker
       refX="0"
       refY="0"
       orient="auto"
       id="Arrow2Mstart"
       style="overflow:visible">
      <path
         d="M 8.7185878,4.0337352 L -2.2072895,0.016013256 L 8.7185884,-4.0017078 C 6.97309,-1.6296469 6.9831476,1.6157441 8.7185878,4.0337352 z"
         transform="scale(0.6,0.6)"
         id="path10068"
         style="font-size:12px;fill-rule:evenodd;stroke-width:0.625;stroke-linejoin:round" />
    </marker>
    <marker
       refX="0"
       refY="0"
       orient="auto"
       id="Arrow2Sstart"
       style="overflow:visible">
      <path
         d="M 8.7185878,4.0337352 L -2.2072895,0.016013256 L 8.7185884,-4.0017078 C 6.97309,-1.6296469 6.9831476,1.6157441 8.7185878,4.0337352 z"
         transform="matrix(0.3,0,0,0.3,-0.69,0)"
         id="path10074"
         style="font-size:12px;fill-rule:evenodd;stroke-width:0.625;stroke-linejoin:round" />
    </marker>
    <marker
       refX="0"
       refY="0"
       orient="auto"
       id="TriangleOutS"
       style="overflow:visible">
      <path
         d="M 5.77,0 L -2.88,5 L -2.88,-5 L 5.77,0 z"
         transform="scale(0.2,0.2)"
         id="path10148"
         style="fill-rule:evenodd;stroke:#000000;stroke-width:1pt;marker-start:none" />
    </marker>
    <marker
       refX="0"
       refY="0"
       orient="auto"
       id="TriangleOutM"
       style="overflow:visible">
      <path
         d="M 5.77,0 L -2.88,5 L -2.88,-5 L 5.77,0 z"
         transform="scale(0.4,0.4)"
         id="path10145"
         style="fill-rule:evenodd;stroke:#000000;stroke-width:1pt;marker-start:none" />
    </marker>
    <marker
       refX="0"
       refY="0"
       orient="auto"
       id="Arrow2Mend"
       style="overflow:visible">
      <path
         d="M 8.7185878,4.0337352 L -2.2072895,0.016013256 L 8.7185884,-4.0017078 C 6.97309,-1.6296469 6.9831476,1.6157441 8.7185878,4.0337352 z"
         transform="scale(-0.6,-0.6)"
         id="path10071"
         style="font-size:12px;fill-rule:evenodd;stroke-width:0.625;stroke-linejoin:round" />
    </marker>
    <marker
       refX="0"
       refY="0"
       orient="auto"
       id="Arrow1Lend"
       style="overflow:visible">
      <path
         d="M 0,0 L 5,-5 L -12.5,0 L 5,5 L 0,0 z"
         transform="matrix(-0.8,0,0,-0.8,-10,0)"
         id="path10047"
         style="fill-rule:evenodd;stroke:#000000;stroke-width:1pt;marker-start:none" />
    </marker>
  </defs>
  <g
     id="layer1">
    <path
       d="M 20,191 L 116.78571,191"
       id="path5933"
       style="fill:none;fill-rule:evenodd;stroke:#000000;stroke-width:7;stroke-linecap:butt;stroke-linejoin:miter;stroke-miterlimit:4;stroke-dasharray:none;stroke-opacity:1" />
    <path
       d="M 20,79 L 116.78571,79"
       id="path9068"
       style="fill:none;fill-rule:evenodd;stroke:#000000;stroke-width:7;stroke-linecap:butt;stroke-linejoin:miter;stroke-miterlimit:4;stroke-dasharray:none;stroke-opacity:1" />
    <path
       d="M 132.98194,11.862925 L 132.98194,73.28256 C 134.46499,103.67464 107.57695,130.56269 65.136054,141.12844 L 59.017726,138.33199 L 59.017726,76.91236 L 126.86361,9.066458 L 132.98194,11.862925 z M 132.86077,11.86293 C 134.34382,42.25501 107.45577,69.14307 65.014874,79.70882 L 58.896547,76.91236 M 65.51264,78.8703 L 65.51264,140.28993"
       id="path7098"
       style="fill:#7f7f7f;fill-opacity:0.74242422;fill-rule:nonzero;stroke:#000000;stroke-width:3;stroke-linecap:butt;stroke-linejoin:miter;stroke-miterlimit:4;stroke-dasharray:none;stroke-dashoffset:0;stroke-opacity:1" />
    <path
       d="M 116,75.5 C 115.28026,77.709709 110.62094,80.631218 106.15101,82.5 L 177.4375,82.5 L 177.4375,75.5 L 116,75.5 z"
       id="path10039"
       style="fill:#000000;fill-opacity:1;fill-rule:evenodd;stroke:none;stroke-width:10;stroke-linecap:butt;stroke-linejoin:miter;stroke-miterlimit:4;stroke-opacity:1" />
    <path
       d="M 32,35 L 192,125"
       id="path10260"
       style="fill:none;fill-rule:evenodd;stroke:#000000;stroke-width:1;stroke-linecap:butt;stroke-linejoin:miter;stroke-miterlimit:4;stroke-dasharray:8, 8;stroke-dashoffset:0;stroke-opacity:1" />
    <path
       d="M 28.377403,80.656897 A 66.207108,62.5 0 0 1 37.610895,45.528784"
       transform="translate(0,-6)"
       id="path10284"
       style="opacity:1;fill:none;fill-opacity:0.74242422;fill-rule:nonzero;stroke:#000000;stroke-width:1;stroke-linecap:butt;stroke-linejoin:miter;marker-start:none;marker-end:none;stroke-miterlimit:4;stroke-dasharray:none;stroke-dashoffset:0;stroke-opacity:1" />
    <path
       d="M 142.88143,130.10557 L 142.88143,191.5252 C 112.1773,203.29901 90.067435,219.03756 80.235296,259.82298 L 58.896547,251.08199 L 59.017726,190.91236 L 126.86361,123.06646 L 142.88143,130.10557 z M 142.76026,129.75202 C 114.55739,145.73419 91.136712,164.40474 79.985296,200.07278 L 58.896547,190.91236 M 80.01264,199.8703 C 80.01264,199.8703 80.01264,244.99752 80.01264,260.03993"
       id="path5931"
       style="fill:#7f7f7f;fill-opacity:0.74242422;fill-rule:nonzero;stroke:#000000;stroke-width:3;stroke-linecap:butt;stroke-linejoin:miter;stroke-miterlimit:4;stroke-dasharray:none;stroke-dashoffset:0;stroke-opacity:1" />
    <path
       d="M 32,147 L 192,237"
       id="path5935"
       style="fill:none;fill-rule:evenodd;stroke:#000000;stroke-width:1;stroke-linecap:butt;stroke-linejoin:miter;stroke-miterlimit:4;stroke-dasharray:8, 8;stroke-dashoffset:0;stroke-opacity:1" />
    <path
       d="M 116,187.5 C 113.03026,188.45971 108.99594,190.38122 106.15101,194.5 L 177.4375,194.5 L 177.4375,187.5 L 116,187.5 z"
       id="path5939"
       style="fill:#000000;fill-opacity:1;fill-rule:evenodd;stroke:none;stroke-width:10;stroke-linecap:butt;stroke-linejoin:miter;stroke-miterlimit:4;stroke-opacity:1" />
    <path
       d="M 32.173359,42.190296 L 37.830213,39.361869 L 37.653436,46.079383"
       id="path8392"
       style="fill:none;fill-rule:evenodd;stroke:#000000;stroke-width:1px;stroke-linecap:butt;stroke-linejoin:miter;stroke-opacity:1" />
    <path
       d="M 31.289475,70.121014 L 28.461048,75.070761 L 25.809398,70.121014"
       id="path8394"
       style="fill:none;fill-rule:evenodd;stroke:#000000;stroke-width:1px;stroke-linecap:butt;stroke-linejoin:miter;stroke-opacity:1" />
    <path
       d="M 28.377403,80.656897 A 66.207108,62.5 0 0 1 37.610895,45.528784"
       transform="translate(0,106)"
       id="path8396"
       style="opacity:1;fill:none;fill-opacity:0.74242422;fill-rule:nonzero;stroke:#000000;stroke-width:1;stroke-linecap:butt;stroke-linejoin:miter;marker-start:none;marker-end:none;stroke-miterlimit:4;stroke-dasharray:none;stroke-dashoffset:0;stroke-opacity:1" />
    <path
       d="M 32.173359,154.1903 L 37.830213,151.36187 L 37.653436,158.07938"
       id="path8398"
       style="fill:none;fill-rule:evenodd;stroke:#000000;stroke-width:1px;stroke-linecap:butt;stroke-linejoin:miter;stroke-opacity:1" />
    <path
       d="M 31.289475,182.12101 L 28.461048,187.07076 L 25.809398,182.12101"
       id="path8400"
       style="fill:none;fill-rule:evenodd;stroke:#000000;stroke-width:1px;stroke-linecap:butt;stroke-linejoin:miter;stroke-opacity:1" />
    <text
       x="144.76321"
       y="45.830322"
       id="text6342"
       xml:space="preserve"
       style="font-size:10px;font-style:italic;font-variant:normal;font-weight:normal;font-stretch:normal;text-align:start;line-height:125%;writing-mode:lr-tb;text-anchor:start;fill:#000000;fill-opacity:1;stroke:none;stroke-width:1px;stroke-linecap:butt;stroke-linejoin:miter;stroke-opacity:1;font-family:Times New Roman;-inkscape-font-specification:Times New Roman Italic"><tspan
         x="144.76321"
         y="45.830322"
         id="tspan6344"
         style="font-size:28px">F&gt;0</tspan></text>
    <path
       d="M 163.04078,66.644246 L 182.54078,79.64425 L 162.79078,90.89425"
       id="path6309"
       style="fill:none;fill-rule:evenodd;stroke:#000000;stroke-width:7;stroke-linecap:round;stroke-linejoin:miter;stroke-miterlimit:4;stroke-dasharray:none;stroke-opacity:1" />
    <path
       d="M 163.04078,178.64425 L 182.54078,191.64425 L 162.79078,202.89425"
       id="path8405"
       style="fill:none;fill-rule:evenodd;stroke:#000000;stroke-width:7;stroke-linecap:round;stroke-linejoin:miter;stroke-miterlimit:4;stroke-dasharray:none;stroke-opacity:1" />
    <text
       x="149.71295"
       y="169.22046"
       id="text6517"
       xml:space="preserve"
       style="font-size:10px;font-style:italic;font-variant:normal;font-weight:normal;font-stretch:normal;text-align:start;line-height:125%;writing-mode:lr-tb;text-anchor:start;fill:#000000;fill-opacity:1;stroke:none;stroke-width:1px;stroke-linecap:butt;stroke-linejoin:miter;stroke-opacity:1;font-family:Times New Roman;-inkscape-font-specification:Times New Roman Italic"><tspan
         x="149.71295"
         y="169.22046"
         id="tspan6519"
         style="font-size:28px">F&lt;0</tspan></text>
    <text
       x="11.314504"
       y="60.233566"
       id="text6521"
       xml:space="preserve"
       style="font-size:28px;font-style:italic;font-variant:normal;font-weight:normal;font-stretch:normal;text-align:start;line-height:100%;writing-mode:lr-tb;text-anchor:start;fill:#000000;fill-opacity:1;stroke:none;stroke-width:1px;stroke-linecap:butt;stroke-linejoin:miter;stroke-opacity:1;font-family:Times New Roman;-inkscape-font-specification:Times New Roman Italic"><tspan
         x="11.314504"
         y="60.233566"
         id="tspan6525">α</tspan></text>
    <text
       x="11.314504"
       y="176.23357"
       id="text8411"
       xml:space="preserve"
       style="font-size:28px;font-style:italic;font-variant:normal;font-weight:normal;font-stretch:normal;text-align:start;line-height:100%;writing-mode:lr-tb;text-anchor:start;fill:#000000;fill-opacity:1;stroke:none;stroke-width:1px;stroke-linecap:butt;stroke-linejoin:miter;stroke-opacity:1;font-family:Times New Roman;-inkscape-font-specification:Times New Roman Italic"><tspan
         x="11.314504"
         y="176.23357"
         id="tspan8413">α</tspan></text>
  </g>
</svg>

<svg height="272" width="205" xmlns="http://www.w3.org/2000/svg">
  <path d="m20 191h96.78571" fill="none" stroke="#000" stroke-width="7"/>
  <path d="m20 79h96.78571" fill="none" stroke="#000" stroke-width="7"/>
  <path d="m132.98194 11.862925v61.419635c1.48305 30.39208-25.40499 57.28013-67.845886 67.84588l-6.118328-2.79645v-61.41963l67.845884-67.845902zm-.12117.000005c1.48305 30.39208-25.405 57.28014-67.845896 67.84589l-6.118327-2.79646m6.616093 1.95794v61.41963" fill="#7f7f7f" fill-opacity=".742424" stroke="#000" stroke-width="3"/>
  <path d="m116 75.5c-.71974 2.209709-5.37906 5.131218-9.84899 7h71.28649v-7z" fill-rule="evenodd"/>
  <path d="m32 35 160 90" fill="none" stroke="#000" stroke-dasharray="8 8"/>
  <path d="m28.377403 80.656897a66.207108 62.5 0 0 1 9.233492-35.128113" fill="none" stroke="#000" transform="translate(0 -6)"/>
  <path d="m142.88143 130.10557v61.41963c-30.70413 11.77381-52.813995 27.51236-62.646134 68.29778l-21.338749-8.74099.121179-60.16963 67.845884-67.8459zm-.12117-.35355c-28.20287 15.98217-51.623548 34.65272-62.774964 70.32076l-21.088749-9.16042m21.116093 8.95794v60.16963" fill="#7f7f7f" fill-opacity=".742424" stroke="#000" stroke-width="3"/>
  <path d="m32 147 160 90" fill="none" stroke="#000" stroke-dasharray="8 8"/>
  <path d="m116 187.5c-2.96974.95971-7.00406 2.88122-9.84899 7h71.28649v-7z" fill-rule="evenodd"/>
  <g fill="none">
    <path d="m32.173359 42.190296 5.656854-2.828427-.176777 6.717514" stroke="#000"/>
    <path d="m31.289475 70.121014-2.828427 4.949747-2.65165-4.949747" stroke="#000"/>
    <path d="m28.377403 80.656897a66.207108 62.5 0 0 1 9.233492-35.128113" stroke="#000" transform="translate(0 106)"/>
    <path d="m32.173359 154.1903 5.656854-2.82843-.176777 6.71751" stroke="#000"/>
    <path d="m31.289475 182.12101-2.828427 4.94975-2.65165-4.94975" stroke="#000"/>
  </g>
  <text font-family="Times New Roman" font-size="10" font-style="italic" x="144.76321" y="45.830322"><tspan font-size="28" x="144.76321" y="45.830322">F&gt;0</tspan></text>
  <path d="m163.04078 66.644246 19.5 13.000004-19.75 11.25" fill="none" stroke="#000" stroke-linecap="round" stroke-width="7"/>
  <path d="m163.04078 178.64425 19.5 13-19.75 11.25" fill="none" stroke="#000" stroke-linecap="round" stroke-width="7"/>
  <text font-family="Times New Roman" font-size="10" font-style="italic" x="149.71295" y="169.22046"><tspan font-size="28" x="149.71295" y="169.22046">F&lt;0</tspan></text>
  <text font-family="Times New Roman" font-size="28" font-style="italic" x="11.314504" y="60.233566"><tspan x="11.314504" y="60.233566">α</tspan></text>
  <text font-family="Times New Roman" font-size="28" font-style="italic" x="11.314504" y="176.23357"><tspan x="11.314504" y="176.23357">α</tspan></text>
</svg>
